static/logos/postman-wordmark-color.svg

<svg width="100" height="31" viewBox="0 0 100 31" fill="none" xmlns="http://www.w3.org/2000/svg">
<g clip-path="url(#clip0_1_1527)">
<path d="M35.3047 19.6364V10.8637C35.3047 10.7576 35.3501 10.6667 35.4259 10.5909C35.5168 10.5152 35.6229 10.4697 35.7441 10.4849H38.2138C38.9411 10.4546 39.6683 10.697 40.2289 11.1667C40.7289 11.6212 40.9865 12.3334 40.9865 13.303V13.4243C40.9865 14.394 40.7289 15.1212 40.2138 15.5758C39.638 16.0455 38.9107 16.303 38.1683 16.2576H36.4107V19.6364C36.4107 19.7576 36.3501 19.8636 36.2441 19.9242C36.0017 20.0606 35.7138 20.0606 35.4714 19.9242C35.3653 19.8636 35.3047 19.7576 35.3047 19.6364ZM36.3956 15.3485H38.1683C38.638 15.3788 39.1077 15.2121 39.441 14.8788C39.7744 14.5 39.941 14 39.8956 13.4849V13.3334C39.941 12.8334 39.7744 12.3334 39.441 11.9394C39.0926 11.6212 38.638 11.4546 38.1683 11.4849H36.4107L36.3956 15.3485Z" fill="#FF6C37"/>
<path d="M44.8047 17.2576V13.3333C44.8047 12.3485 45.0623 11.6364 45.5623 11.1818C46.7744 10.2727 48.4411 10.2727 49.6532 11.1818C50.1683 11.6364 50.4259 12.3636 50.4259 13.3333V17.2576C50.4259 18.2424 50.1683 18.9545 49.6532 19.4091C48.4411 20.3333 46.7744 20.3333 45.5623 19.4091C45.0623 18.9545 44.8047 18.2424 44.8047 17.2576ZM45.9107 17.2576C45.9107 18.4848 46.4714 19.1061 47.6229 19.1061C48.0926 19.1364 48.5471 18.9697 48.8956 18.6515C49.2289 18.2727 49.3804 17.7727 49.3501 17.2576V13.3182C49.3956 12.8182 49.2289 12.3182 48.8956 11.9242C48.5471 11.6061 48.0926 11.4394 47.6229 11.4697C46.4865 11.4697 45.9259 12.0758 45.9259 13.3182L45.9107 17.2576Z" fill="#FF6C37"/>
<path d="M54.3047 18.6818C54.3047 18.5303 54.3653 18.3939 54.4562 18.2727C54.532 18.1667 54.638 18.0909 54.7744 18.0758C54.8956 18.0909 55.0017 18.1515 55.0774 18.2424C55.1986 18.3485 55.3198 18.4697 55.4562 18.6061C55.638 18.7727 55.8501 18.8939 56.0774 18.9697C56.3804 19.0909 56.7138 19.1364 57.032 19.1364C57.5168 19.1667 57.9865 19.0151 58.3653 18.7273C58.6986 18.4242 58.8804 17.9697 58.8501 17.5151C58.8653 17.0758 58.7138 16.6667 58.4107 16.3485C58.1077 16.0455 57.7441 15.8182 57.335 15.6667C56.9107 15.5152 56.5017 15.3485 56.0623 15.1667C55.638 14.9848 55.2744 14.7121 54.9865 14.3485C54.6835 13.9394 54.5168 13.4394 54.5471 12.9242C54.532 12.5151 54.6229 12.106 54.8047 11.7273C54.9562 11.4091 55.1986 11.1515 55.5017 10.9697C55.7895 10.803 56.0926 10.6818 56.4107 10.5909C56.7441 10.5151 57.0774 10.4697 57.4107 10.4697C57.9411 10.4697 58.4562 10.5454 58.9562 10.697C59.4411 10.8636 59.6986 11.0757 59.6986 11.3333C59.6986 11.4697 59.6532 11.606 59.5623 11.7273C59.5017 11.8485 59.3653 11.9394 59.2289 11.9394C59.032 11.8788 58.835 11.803 58.638 11.7121C58.2592 11.5454 57.8501 11.4545 57.4259 11.4697C56.9865 11.4545 56.532 11.5606 56.1532 11.7879C55.8198 12.0151 55.638 12.4091 55.6683 12.8182C55.6532 13.197 55.8047 13.5606 56.0926 13.803C56.4108 14.0606 56.7744 14.2727 57.1683 14.3939C57.5926 14.5454 58.0168 14.7121 58.4411 14.9091C58.8653 15.1212 59.2289 15.4394 59.5017 15.8333C59.8047 16.3182 59.9562 16.8788 59.9411 17.4545C59.9411 18.3485 59.6835 19.0303 59.1532 19.4848C58.5774 19.9697 57.835 20.2121 57.0774 20.1667C56.3956 20.1818 55.7138 20.0151 55.1229 19.6818C54.5774 19.3182 54.3047 19 54.3047 18.6818Z" fill="#FF6C37"/>
<path d="M63.1953 10.9697C63.1953 10.8485 63.2256 10.7273 63.3014 10.6364C63.362 10.5303 63.468 10.4848 63.5893 10.4848H68.8923C69.0135 10.4848 69.1196 10.5303 69.1802 10.6364C69.2559 10.7273 69.2862 10.8485 69.2862 10.9697C69.2862 11.0909 69.2559 11.2273 69.1802 11.3333C69.1196 11.4394 69.0135 11.4848 68.8923 11.4848H66.8165V19.6364C66.8165 19.7576 66.7559 19.8636 66.6499 19.9242C66.4074 20.0606 66.1196 20.0606 65.8771 19.9242C65.7711 19.8636 65.7105 19.7576 65.7105 19.6364V11.4848H63.6044C63.4832 11.4848 63.3771 11.4394 63.3165 11.3333C63.2408 11.2273 63.1953 11.1061 63.1953 10.9697Z" fill="#FF6C37"/>
<path d="M73.0148 19.6364V11.0454C72.9693 10.7879 73.1512 10.5454 73.4087 10.5C73.4693 10.4848 73.5299 10.4848 73.5754 10.5C73.9239 10.5 74.2118 10.7273 74.4542 11.197L76.4996 15.1212L78.5602 11.197C78.8178 10.7424 79.1057 10.5 79.439 10.5C79.6966 10.4545 79.939 10.6363 79.9845 10.8939C79.9996 10.9394 79.9996 10.9848 79.9845 11.0303V19.6212C79.9845 19.7424 79.9239 19.8485 79.8178 19.9091C79.5754 20.0455 79.2875 20.0455 79.0451 19.9091C78.939 19.8485 78.8784 19.7424 78.8784 19.6212V12.7879L76.9087 16.4848C76.8481 16.6667 76.6815 16.803 76.4845 16.803C76.3027 16.7879 76.136 16.6667 76.0754 16.4848L74.1057 12.7121V19.6212C74.1057 19.7424 74.0451 19.8485 73.939 19.9091C73.833 19.9848 73.6966 20.0303 73.5754 20.0303C73.439 20.0303 73.3027 20 73.1966 19.9242C73.0754 19.8788 72.9996 19.7576 73.0148 19.6364Z" fill="#FF6C37"/>
<path d="M83.7266 19.5758C83.7266 19.5455 83.7417 19.5 83.7569 19.4697L86.4235 10.8788C86.4993 10.6212 86.7266 10.5 87.0902 10.5C87.4538 10.5 87.6811 10.6212 87.7569 10.8788L90.4387 19.5152V19.5606V19.5909C90.4387 19.7273 90.3478 19.8485 90.2266 19.9091C90.0902 20 89.9235 20.0455 89.7417 20.0303C89.575 20.0455 89.4084 19.9545 89.3478 19.7879L88.772 17.8788H85.3478L84.772 19.7879C84.7266 19.9545 84.5448 20.0606 84.3781 20.0455C84.2266 20.0455 84.0751 20 83.9387 19.9091C83.8023 19.8485 83.7266 19.7273 83.7266 19.5758ZM85.6205 16.9697H88.5448L87.0902 12.0909L85.6205 16.9697Z" fill="#FF6C37"/>
<path d="M94.2109 19.6364V10.8636C94.2109 10.6061 94.3928 10.4848 94.7564 10.4848C94.9231 10.4848 95.0897 10.5455 95.2261 10.6515C95.3776 10.803 95.514 10.9848 95.5897 11.1818L98.8473 17.5455V10.8636C98.8473 10.7424 98.9079 10.6364 99.014 10.5909C99.2564 10.4545 99.5443 10.4545 99.7867 10.5909C99.8928 10.6515 99.9534 10.7576 99.9534 10.8636V19.6364C99.9534 19.7576 99.8928 19.8636 99.7867 19.9242C99.6655 20 99.5443 20.0303 99.4079 20.0303C99.1049 20.0152 98.8321 19.8182 98.7261 19.5303L95.3018 12.9697V19.6364C95.3018 19.7576 95.2412 19.8636 95.1503 19.9242C94.9079 20.0606 94.62 20.0606 94.3776 19.9242C94.2715 19.8636 94.2109 19.7576 94.2109 19.6364Z" fill="#FF6C37"/>
<path d="M30.2549 17.2273C31.3155 8.92424 25.4518 1.33332 17.164 0.272716C8.87608 -0.78789 1.25486 5.07575 0.194255 13.3636C-0.866351 21.6515 4.99729 29.2576 13.2852 30.3333C21.5882 31.3939 29.1791 25.5303 30.2549 17.2273Z" fill="#FF6C37"/>
<path d="M20.697 9.87878L14.303 16.2727L12.5 14.4697C18.7879 8.18182 19.4091 8.72727 20.697 9.87878Z" fill="white"/>
<path d="M14.3056 16.4242C14.2602 16.4242 14.2299 16.4091 14.1996 16.3788L12.3814 14.5758C12.3208 14.5151 12.3208 14.4242 12.3814 14.3636C18.7753 7.96969 19.442 8.57575 20.7905 9.78787C20.8208 9.81818 20.836 9.84848 20.836 9.89394C20.836 9.93939 20.8208 9.96969 20.7905 10L14.3965 16.3788C14.3814 16.4091 14.3359 16.4242 14.3056 16.4242ZM12.7147 14.4697L14.3056 16.0606L20.4723 9.89394C19.3511 8.89394 18.5935 8.5909 12.7147 14.4697Z" fill="#FF6C37"/>
<path d="M16.133 18.1061L14.3906 16.3636L20.7846 9.9697C22.4967 11.697 19.9361 14.5 16.133 18.1061Z" fill="white"/>
<path d="M16.1366 18.2576C16.0911 18.2576 16.0608 18.2424 16.0305 18.2121L14.2881 16.4697C14.2578 16.4394 14.2578 16.4091 14.2578 16.3636C14.2578 16.3182 14.273 16.2879 14.3033 16.2576L20.6972 9.86363C20.7578 9.80302 20.8487 9.80302 20.9093 9.86363C21.3033 10.2273 21.5154 10.7424 21.5002 11.2727C21.4699 12.9546 19.5608 15.0909 16.2578 18.2121C16.2123 18.2424 16.1669 18.2576 16.1366 18.2576ZM14.6063 16.3636C15.576 17.3485 15.9851 17.7424 16.1366 17.8939C18.682 15.4697 21.1517 12.9849 21.1669 11.2727C21.182 10.8788 21.0305 10.4848 20.773 10.1818L14.6063 16.3636Z" fill="#FF6C37"/>
<path d="M12.529 14.5151L13.8169 15.803C13.8472 15.8333 13.8472 15.8636 13.8169 15.8939C13.8018 15.9091 13.8018 15.9091 13.7866 15.9091L11.1199 16.4848C10.9836 16.5 10.8624 16.4091 10.8321 16.2727C10.8169 16.197 10.8472 16.1212 10.8927 16.0758L12.4381 14.5303C12.4684 14.5 12.5139 14.4848 12.529 14.5151Z" fill="white"/>
<path d="M11.0736 16.6364C10.8464 16.6364 10.6797 16.4546 10.6797 16.2273C10.6797 16.1212 10.7251 16.0152 10.8009 15.9394L12.3464 14.3939C12.4373 14.3182 12.5585 14.3182 12.6494 14.3939L13.9373 15.6818C14.0282 15.7576 14.0282 15.8939 13.9373 15.9849C13.907 16.0152 13.8767 16.0303 13.8312 16.0455L11.1645 16.6212C11.1342 16.6212 11.1039 16.6364 11.0736 16.6364ZM12.4827 14.6818L10.9979 16.1667C10.9676 16.197 10.9524 16.2424 10.9827 16.2879C10.9979 16.3333 11.0433 16.3485 11.0888 16.3333L13.5888 15.7879L12.4827 14.6818Z" fill="#FF6C37"/>
<path d="M24.0758 6.33335C23.1061 5.39396 21.5455 5.42426 20.6061 6.40911C19.6667 7.39396 19.697 8.9394 20.6819 9.87879C21.4849 10.6515 22.697 10.7879 23.6516 10.2121L21.9243 8.48485L24.0758 6.33335Z" fill="white"/>
<path d="M22.3795 10.7121C20.9401 10.7121 19.7734 9.54545 19.7734 8.10606C19.7734 6.66667 20.9401 5.5 22.3795 5.5C23.0462 5.5 23.6977 5.75758 24.1825 6.22727C24.2128 6.25758 24.228 6.28788 24.228 6.33333C24.228 6.37879 24.2128 6.40909 24.1825 6.43939L22.1371 8.48485L23.7431 10.0909C23.8037 10.1515 23.8037 10.2424 23.7431 10.303C23.728 10.3182 23.728 10.3182 23.7128 10.3333C23.3189 10.5758 22.8492 10.7121 22.3795 10.7121ZM22.3795 5.81818C21.1068 5.81818 20.0765 6.84848 20.0916 8.12121C20.0916 9.39394 21.1219 10.4242 22.3947 10.4091C22.7431 10.4091 23.0916 10.3333 23.4098 10.1667L21.8189 8.59091C21.7886 8.56061 21.7734 8.5303 21.7734 8.48485C21.7734 8.43939 21.7886 8.40909 21.8189 8.37879L23.8492 6.34849C23.4401 6 22.925 5.81818 22.3795 5.81818Z" fill="#FF6C37"/>
<path d="M24.1188 6.37877L24.0885 6.34846L21.9219 8.48483L23.634 10.1969C23.8007 10.0909 23.9673 9.96968 24.1037 9.83331C25.0734 8.87877 25.0734 7.33331 24.1188 6.37877Z" fill="white"/>
<path d="M23.6522 10.3637C23.6068 10.3637 23.5765 10.3485 23.5462 10.3182L21.8189 8.59091C21.7886 8.56061 21.7734 8.53032 21.7734 8.48487C21.7734 8.43941 21.7886 8.40911 21.8189 8.37881L23.9704 6.22728C24.031 6.16667 24.1219 6.16667 24.1825 6.22728L24.228 6.2576C25.2431 7.27275 25.2431 8.9091 24.2431 9.9394C24.0916 10.0909 23.925 10.2273 23.7431 10.3333C23.6977 10.3485 23.6674 10.3637 23.6522 10.3637ZM22.1371 8.48487L23.6674 10.0152C23.7886 9.9394 23.9098 9.83335 24.0007 9.74245C24.8643 8.87881 24.9098 7.46972 24.0765 6.56063L22.1371 8.48487Z" fill="#FF6C37"/>
<path d="M20.9522 10.1515C20.5886 9.78788 19.9976 9.78788 19.634 10.1515L13.9219 15.8636L14.8764 16.8182L20.9219 11.5151C21.3158 11.1818 21.3461 10.5909 21.0128 10.197C20.9825 10.1818 20.9673 10.1667 20.9522 10.1515Z" fill="white"/>
<path d="M14.8639 16.9697C14.8184 16.9697 14.7881 16.9546 14.7578 16.9242L13.8033 15.9697C13.7427 15.9091 13.7427 15.8182 13.8033 15.7576L19.5154 10.0455C19.9396 9.62122 20.6214 9.62122 21.0457 10.0455C21.4699 10.4697 21.4699 11.1515 21.0457 11.5758C21.0305 11.5909 21.0154 11.6061 21.0002 11.6212L14.9548 16.9242C14.9396 16.9546 14.9093 16.9697 14.8639 16.9697ZM14.1366 15.8636L14.879 16.6061L20.8184 11.3939C21.1518 11.1212 21.1821 10.6212 20.9093 10.2879C20.6366 9.95454 20.1366 9.92425 19.8033 10.197C19.7881 10.2121 19.773 10.2273 19.7427 10.2424L14.1366 15.8636Z" fill="#FF6C37"/>
<path d="M9.5464 22.3636C9.4858 22.3939 9.45549 22.4545 9.47064 22.5151L9.72822 23.6061C9.78883 23.7576 9.69792 23.9394 9.53125 23.9848C9.41004 24.0303 9.27367 23.9848 9.19792 23.8939L7.53125 22.2424L12.9706 16.803L14.8494 16.8333L16.1222 18.1061C15.8191 18.3636 13.9858 20.1364 9.5464 22.3636Z" fill="white"/>
<path d="M9.4214 24.1364C9.30019 24.1364 9.17898 24.0909 9.10322 24L7.45171 22.3485C7.4214 22.3182 7.40625 22.2879 7.40625 22.2424C7.40625 22.197 7.4214 22.1667 7.45171 22.1364L12.8911 16.697C12.9214 16.6667 12.9669 16.6515 12.9972 16.6515L14.8759 16.6818C14.9214 16.6818 14.9517 16.697 14.982 16.7273L16.2548 18C16.2851 18.0303 16.3002 18.0758 16.3002 18.1212C16.3002 18.1667 16.2851 18.197 16.2396 18.2273L16.1335 18.3182C14.5275 19.7273 12.3456 21.1364 9.63352 22.4849L9.8911 23.5606C9.93655 23.7576 9.84564 23.9697 9.66383 24.0758C9.57292 24.1212 9.49716 24.1364 9.4214 24.1364ZM7.75474 22.2424L9.31534 23.7879C9.3608 23.8636 9.4517 23.8939 9.52746 23.8485C9.60322 23.803 9.63352 23.7121 9.58807 23.6364L9.33049 22.5455C9.30019 22.4091 9.3608 22.2879 9.48201 22.2273C12.1638 20.8788 14.3305 19.4849 15.9214 18.1061L14.8002 16.9849L13.0578 16.9546L7.75474 22.2424Z" fill="#FF6C37"/>
<path d="M6.24194 23.5455L7.54497 22.2424L9.48436 24.1818L6.39346 23.9697C6.25709 23.9546 6.16618 23.8333 6.18133 23.697C6.18133 23.6364 6.19649 23.5758 6.24194 23.5455Z" fill="white"/>
<path d="M9.48636 24.3182L6.3803 24.1061C6.15303 24.0909 6.00152 23.8939 6.01667 23.6667C6.03182 23.5758 6.06212 23.4849 6.13788 23.4242L7.44091 22.1212C7.50151 22.0606 7.59242 22.0606 7.65303 22.1212L9.59242 24.0606C9.63788 24.1061 9.65303 24.1667 9.62273 24.2273C9.59242 24.2879 9.54697 24.3182 9.48636 24.3182ZM7.54697 22.4545L6.35 23.6515C6.30455 23.6818 6.30455 23.7576 6.35 23.7879C6.36515 23.803 6.3803 23.8182 6.41061 23.8182L9.09242 24L7.54697 22.4545Z" fill="#FF6C37"/>
<path d="M12.4406 17.5C12.3497 17.5 12.2891 17.4242 12.2891 17.3485C12.2891 17.303 12.3042 17.2727 12.3345 17.2424L13.8042 15.7727C13.8648 15.7121 13.9557 15.7121 14.0163 15.7727L14.9709 16.7273C15.0163 16.7727 15.0315 16.8182 15.0163 16.8788C15.0012 16.9242 14.9557 16.9697 14.8951 16.9848L12.4709 17.5C12.4557 17.5 12.4406 17.5 12.4406 17.5ZM13.9103 16.0909L12.9103 17.0909L14.5466 16.7424L13.9103 16.0909Z" fill="#FF6C37"/>
<path d="M14.8511 16.8333L13.1844 17.197C13.0632 17.2273 12.942 17.1515 12.9117 17.0303C12.8966 16.9545 12.9117 16.8788 12.9723 16.8182L13.8966 15.8939L14.8511 16.8333Z" fill="white"/>
<path d="M13.1522 17.3485C12.9401 17.3485 12.7734 17.1818 12.7734 16.9697C12.7734 16.8636 12.8189 16.7727 12.8795 16.697L13.8038 15.7727C13.8644 15.7121 13.9553 15.7121 14.0159 15.7727L14.9704 16.7273C15.0159 16.7727 15.031 16.8182 15.0159 16.8788C15.0007 16.9242 14.9553 16.9697 14.8946 16.9848L13.228 17.3485C13.1977 17.3485 13.1674 17.3485 13.1522 17.3485ZM13.9098 16.0909L13.0916 16.9091C13.0613 16.9394 13.0613 16.9697 13.0765 17C13.0916 17.0303 13.1219 17.0454 13.1674 17.0454L14.5613 16.7424L13.9098 16.0909Z" fill="#FF6C37"/>
<path d="M24.1361 7.83332C24.1058 7.74241 23.9998 7.69696 23.9088 7.72726C23.8179 7.75756 23.7725 7.86362 23.8028 7.95453C23.8028 7.96968 23.8179 7.98484 23.8179 7.99999C23.9088 8.18181 23.8785 8.40908 23.7573 8.57574C23.6967 8.6515 23.7119 8.75756 23.7725 8.81817C23.8482 8.87878 23.9543 8.86362 24.0149 8.78787C24.2422 8.49999 24.2876 8.13635 24.1361 7.83332Z" fill="#FF6C37"/>
</g>
<defs>
<clipPath id="clip0_1_1527">
<rect width="100" height="30.6061" fill="white"/>
</clipPath>
</defs>
</svg>

<svg xmlns="http://www.w3.org/2000/svg" width="206.452" height="64" fill="none" viewBox="0 0 100 31"><g clip-path="url(#a)"><path fill="#FF6C37" d="M35.305 19.636v-8.772a.38.38 0 0 1 .12-.273.41.41 0 0 1 .32-.106h2.469a2.961 2.961 0 0 1 2.015.682c.5.454.758 1.166.758 2.136v.121c0 .97-.258 1.697-.773 2.152a2.964 2.964 0 0 1-2.046.682h-1.757v3.378c0 .122-.06.228-.167.288a.78.78 0 0 1-.773 0 .325.325 0 0 1-.166-.288Zm1.09-4.287h1.773c.47.03.94-.137 1.273-.47.333-.379.5-.879.455-1.394v-.152c.045-.5-.122-1-.455-1.394a1.719 1.719 0 0 0-1.273-.454h-1.757l-.015 3.864ZM44.805 17.258v-3.925c0-.985.257-1.697.757-2.151a3.41 3.41 0 0 1 4.091 0c.515.454.773 1.182.773 2.151v3.925c0 .984-.258 1.697-.773 2.151a3.365 3.365 0 0 1-4.09 0c-.5-.454-.758-1.167-.758-2.151Zm1.106 0c0 1.227.56 1.848 1.712 1.848.47.03.924-.136 1.273-.455.333-.378.484-.878.454-1.393v-3.94c.046-.5-.121-1-.454-1.394a1.72 1.72 0 0 0-1.273-.454c-1.136 0-1.697.606-1.697 1.848l-.015 3.94ZM54.305 18.682a.68.68 0 0 1 .151-.41.448.448 0 0 1 .318-.196.468.468 0 0 1 .303.166c.122.107.243.228.38.364.181.167.393.288.62.364.303.12.637.166.955.166.485.03.955-.12 1.333-.409.334-.303.515-.757.485-1.212a1.585 1.585 0 0 0-.44-1.166 2.96 2.96 0 0 0-1.075-.682 27.48 27.48 0 0 1-1.273-.5 2.723 2.723 0 0 1-1.075-.819c-.303-.409-.47-.909-.44-1.424a2.55 2.55 0 0 1 .258-1.197 1.77 1.77 0 0 1 .697-.757c.287-.167.59-.288.909-.38a4.51 4.51 0 0 1 1-.12c.53 0 1.045.075 1.545.227.485.167.743.379.743.636a.654.654 0 0 1-.137.394.39.39 0 0 1-.333.212 4.735 4.735 0 0 1-.591-.227 2.755 2.755 0 0 0-1.212-.242c-.44-.016-.894.09-1.273.318a1.14 1.14 0 0 0-.485 1.03c-.015.379.137.743.425.985.318.258.681.47 1.075.59.425.152.849.32 1.273.516.424.212.788.53 1.06.924.304.485.455 1.046.44 1.621 0 .895-.258 1.576-.788 2.03a2.944 2.944 0 0 1-2.076.683 3.822 3.822 0 0 1-1.954-.485c-.546-.364-.818-.682-.818-1ZM63.195 10.97c0-.122.03-.243.106-.334.061-.106.167-.151.288-.151h5.303c.121 0 .228.045.288.151.076.091.106.213.106.334 0 .12-.03.257-.106.363-.06.106-.167.152-.288.152h-2.075v8.151c0 .122-.061.228-.167.288a.78.78 0 0 1-.773 0 .325.325 0 0 1-.166-.288v-8.151h-2.107c-.12 0-.227-.046-.288-.152a.617.617 0 0 1-.12-.363ZM73.015 19.636v-8.59a.477.477 0 0 1 .394-.546.309.309 0 0 1 .166 0c.349 0 .637.227.88.697l2.045 3.924 2.06-3.924c.258-.455.546-.697.879-.697.258-.046.5.136.546.394a.211.211 0 0 1 0 .136v8.591c0 .121-.061.228-.167.288a.78.78 0 0 1-.773 0 .325.325 0 0 1-.167-.288v-6.833l-1.97 3.697a.455.455 0 0 1-.424.318.473.473 0 0 1-.409-.318l-1.97-3.773v6.91c0 .12-.06.227-.166.287a.653.653 0 0 1-.364.121.65.65 0 0 1-.378-.106.277.277 0 0 1-.182-.288ZM83.727 19.576a.28.28 0 0 1 .03-.106l2.666-8.591c.076-.258.304-.379.667-.379.364 0 .591.121.667.379l2.682 8.636v.076c0 .136-.091.258-.212.318a.752.752 0 0 1-.485.121.378.378 0 0 1-.394-.242l-.576-1.91h-3.424l-.576 1.91c-.045.166-.227.273-.394.258a.79.79 0 0 1-.44-.137.348.348 0 0 1-.211-.333Zm1.894-2.606h2.924l-1.455-4.88-1.47 4.88ZM94.21 19.636v-8.772c0-.258.183-.38.546-.38.167 0 .334.062.47.168.152.151.288.333.364.53l3.257 6.364v-6.682c0-.122.06-.228.167-.273a.78.78 0 0 1 .773 0 .32.32 0 0 1 .166.273v8.772c0 .122-.06.228-.166.288a.683.683 0 0 1-.38.106.771.771 0 0 1-.68-.5l-3.425-6.56v6.666c0 .122-.06.228-.152.288a.78.78 0 0 1-.772 0 .325.325 0 0 1-.167-.288ZM30.255 17.227C31.315 8.924 25.452 1.333 17.164.273 8.876-.787 1.254 5.076.194 13.363c-1.06 8.288 4.803 15.895 13.091 16.97 8.303 1.06 15.894-4.803 16.97-13.106Z"/><path fill="#fff" d="m20.697 9.879-6.394 6.394L12.5 14.47c6.288-6.288 6.91-5.743 8.197-4.591Z"/><path fill="#FF6C37" d="M14.306 16.424a.137.137 0 0 1-.106-.045l-1.819-1.803a.147.147 0 0 1 0-.212c6.394-6.394 7.061-5.788 8.41-4.576.03.03.045.06.045.106a.138.138 0 0 1-.045.106l-6.395 6.379c-.015.03-.06.045-.09.045Zm-1.591-1.954 1.59 1.59 6.167-6.166c-1.12-1-1.879-1.303-7.757 4.576Z"/><path fill="#fff" d="m16.133 18.106-1.742-1.742 6.394-6.394c1.712 1.727-.849 4.53-4.652 8.136Z"/><path fill="#FF6C37" d="M16.137 18.258a.138.138 0 0 1-.107-.046l-1.742-1.742c-.03-.03-.03-.06-.03-.106s.015-.076.045-.106l6.394-6.394c.06-.061.152-.061.212 0 .394.363.606.878.591 1.409-.03 1.682-1.94 3.818-5.242 6.94a.242.242 0 0 1-.121.045Zm-1.53-1.894c.969.985 1.378 1.378 1.53 1.53 2.545-2.424 5.015-4.91 5.03-6.621a1.615 1.615 0 0 0-.394-1.091l-6.167 6.182Z"/><path fill="#fff" d="m12.529 14.515 1.288 1.288c.03.03.03.06 0 .09-.015.016-.015.016-.03.016l-2.667.576a.265.265 0 0 1-.288-.212.224.224 0 0 1 .06-.197l1.546-1.546c.03-.03.076-.045.091-.015Z"/><path fill="#FF6C37" d="M11.074 16.636a.395.395 0 0 1-.394-.409c0-.106.045-.212.12-.288l1.546-1.545a.23.23 0 0 1 .303 0l1.288 1.288c.091.076.091.212 0 .303a.245.245 0 0 1-.106.06l-2.666.576c-.03 0-.061.015-.091.015Zm1.409-1.954-1.485 1.485c-.03.03-.046.075-.015.12.015.046.06.062.106.046l2.5-.545-1.106-1.106Z"/><path fill="#fff" d="M24.076 6.333c-.97-.939-2.53-.909-3.47.076-.94.985-.909 2.53.076 3.47.803.773 2.015.909 2.97.333l-1.728-1.727 2.152-2.152Z"/><path fill="#FF6C37" d="M22.38 10.712a2.606 2.606 0 1 1 1.803-4.485c.03.03.045.06.045.106a.138.138 0 0 1-.046.106l-2.045 2.046 1.606 1.606c.06.06.06.151 0 .212l-.03.03a2.569 2.569 0 0 1-1.334.38Zm0-4.894a2.28 2.28 0 0 0-2.288 2.303 2.28 2.28 0 0 0 2.303 2.288 2.18 2.18 0 0 0 1.015-.242L21.819 8.59a.138.138 0 0 1-.046-.106c0-.046.016-.076.046-.106l2.03-2.03a2.245 2.245 0 0 0-1.47-.53Z"/><path fill="#fff" d="m24.119 6.379-.03-.03-2.167 2.136 1.712 1.712c.167-.106.333-.227.47-.364.97-.954.97-2.5.015-3.454Z"/><path fill="#FF6C37" d="M23.652 10.364a.138.138 0 0 1-.106-.046L21.82 8.591a.138.138 0 0 1-.046-.106c0-.046.016-.076.046-.106l2.151-2.152c.061-.06.152-.06.213 0l.045.03a2.62 2.62 0 0 1 .015 3.682 2.486 2.486 0 0 1-.5.394c-.045.015-.076.03-.09.03Zm-1.515-1.88 1.53 1.531c.122-.076.243-.182.334-.273.863-.863.909-2.272.075-3.181l-1.939 1.924Z"/><path fill="#fff" d="M20.952 10.152a.933.933 0 0 0-1.318 0l-5.712 5.712.954.954 6.046-5.303c.394-.333.424-.924.09-1.318a.208.208 0 0 1-.06-.045Z"/><path fill="#FF6C37" d="M14.864 16.97a.137.137 0 0 1-.106-.046l-.955-.954a.146.146 0 0 1 0-.212l5.712-5.712a1.079 1.079 0 0 1 1.53 0 1.08 1.08 0 0 1 0 1.53L21 11.62l-6.045 5.303c-.015.03-.046.046-.091.046Zm-.727-1.106.742.742 5.94-5.212c.333-.273.363-.773.09-1.106-.272-.333-.772-.364-1.106-.091-.015.015-.03.03-.06.045l-5.606 5.622Z"/><path fill="#fff" d="M9.546 22.364c-.06.03-.09.09-.075.151l.257 1.091a.29.29 0 0 1-.197.379.304.304 0 0 1-.333-.091L7.53 22.242l5.44-5.439 1.878.03 1.273 1.273c-.303.258-2.136 2.03-6.576 4.258Z"/><path fill="#FF6C37" d="M9.421 24.136A.413.413 0 0 1 9.103 24l-1.651-1.651a.138.138 0 0 1-.046-.107c0-.045.015-.075.046-.106l5.44-5.439a.164.164 0 0 1 .105-.046l1.879.03c.045 0 .076.016.106.046L16.255 18c.03.03.045.076.045.121 0 .046-.015.076-.06.106l-.106.091c-1.607 1.41-3.788 2.818-6.5 4.167l.257 1.076a.478.478 0 0 1-.227.515.52.52 0 0 1-.243.06Zm-1.666-1.894 1.56 1.546c.046.076.137.106.212.06.076-.045.107-.136.061-.212l-.258-1.09a.276.276 0 0 1 .152-.319c2.682-1.348 4.849-2.742 6.44-4.12L14.8 16.984l-1.742-.03-5.303 5.287Z"/><path fill="#fff" d="m6.242 23.546 1.303-1.304 1.94 1.94-3.092-.212a.241.241 0 0 1-.212-.273c0-.06.015-.121.06-.151Z"/><path fill="#FF6C37" d="m9.486 24.318-3.106-.212c-.227-.015-.378-.212-.363-.44.015-.09.045-.181.12-.242l1.304-1.303c.06-.06.151-.06.212 0l1.94 1.94c.045.045.06.106.03.166-.03.06-.076.091-.137.091Zm-1.939-1.864L6.35 23.651c-.045.03-.045.107 0 .137.015.015.03.03.06.03L9.093 24l-1.545-1.546ZM12.44 17.5a.152.152 0 0 1-.15-.151c0-.046.014-.076.045-.107l1.47-1.47c.06-.06.15-.06.211 0l.955.955c.045.046.06.091.045.152a.173.173 0 0 1-.12.106l-2.425.515h-.03Zm1.47-1.41-1 1 1.637-.348-.637-.651Z"/><path fill="#fff" d="m14.851 16.833-1.667.364a.226.226 0 0 1-.212-.379l.925-.924.954.94Z"/><path fill="#FF6C37" d="M13.152 17.349a.375.375 0 0 1-.379-.38c0-.105.046-.196.107-.272l.924-.924c.06-.06.151-.06.212 0l.954.954c.046.046.061.091.046.152a.173.173 0 0 1-.121.106l-1.667.364h-.076Zm.758-1.258-.818.818c-.03.03-.03.06-.016.091.016.03.046.045.091.045l1.394-.303-.651-.651ZM24.136 7.833c-.03-.09-.136-.136-.227-.106-.091.03-.136.137-.106.228 0 .015.015.03.015.045.09.182.06.41-.06.576a.184.184 0 0 0 .015.242.17.17 0 0 0 .242-.03c.227-.288.273-.652.121-.955Z"/></g><defs><clipPath id="a"><path fill="#fff" d="M0 0h100v30.606H0z"/></clipPath></defs></svg>
